packages/components/icons/empty.icon.svg

<?xml version="1.0" encoding="UTF-8"?>
<svg width="20px" height="20px" viewBox="0 0 20 20" version="1.1" xmlns="http://www.w3.org/2000/svg" xmlns:xlink="http://www.w3.org/1999/xlink">
    <path
      d="M2 10c0-4.416 3.584-8 8-8s8 3.584 8 8-3.584 8-8 8-8-3.584-8-8Zm8 6.4c3.536 0 6.4-2.864 6.4-6.4 0-3.536-2.864-6.4-6.4-6.4A6.398 6.398 0 0 0 3.6 10c0 3.536 2.864 6.4 6.4 6.4Z"
      fill="currentColor"
    />
</svg>

<?xml version="1.0" encoding="UTF-8"?>
<svg width="20px" height="20px" viewBox="0 0 20 20" version="1.1" xmlns="http://www.w3.org/2000/svg" xmlns:xlink="http://www.w3.org/1999/xlink">
    <!-- Generator: Sketch 46.2 (44496) - http://www.bohemiancoding.com/sketch -->
    <title>empty</title>
    <desc>Created with Sketch.</desc>
    <defs>
        <path d="M2,10 C2,5.584 5.584,2 10,2 C14.416,2 18,5.584 18,10 C18,14.416 14.416,18 10,18 C5.584,18 2,14.416 2,10 Z M10,16.4 C13.536,16.4 16.4,13.536 16.4,10 C16.4,6.464 13.536,3.6 10,3.6 C6.464,3.6 3.6,6.464 3.6,10 C3.6,13.536 6.464,16.4 10,16.4 Z" id="path-1"></path>
    </defs>
    <g id="Symbols" stroke="none" stroke-width="1" fill="none" fill-rule="evenodd">
        <g id="empty">
            <mask id="mask-2" fill="white">
                <use xlink:href="#path-1"></use>
            </mask>
            <use id="Combined-Shape" fill="#000000" xlink:href="#path-1"></use>
        </g>
    </g>
</svg>
